X: 1
T: Gye Fiane
B: A COLECTION of the most Celebrated Irish Tunes2 p.4b
N: The file has an open repeat in the 2nd part, but no close repeat.
M: 3/4
L: 1/8
K: G
|:\
(GA) B2 (AG) | B2 A2 (GE) | (BA) G2 (ED) | (EF) G2 (AB) |\
c2 (BA) (A/B/c) | B2 G2 B2 | A2 e2 (dB) | A4 (AB) |
c2 (BA) (A/B/c) | B2 G2 B2 | A2 B2 (AG) | E4 (GA) |\
B2 (GA) B2 | A2 (GE) (BA) | G2 (ED) (EF) | G6 :|
|:\
G>A B>A G>A | B>G A>G E>F | G>E G>E D>E | (GA) G4 |\
A>B c>B A>B | c>A B>A G>A | BG A2 e2 |
(c>B) A4 | A>B c>B A>B | c>A B>A G>A | BA G2 B2 | (AG) E4 |\
(DE) G4 | (ed) c4 | (ed) c4 |
(ed) B4 | (ed) B4 | (ed) A4 | (ed) A4 |\
G>A B>A G>A | B>G A>G E>F | G>E G>E D>E | (GA) G4 :|
